X: 11132
Q: "Vivace"
M: 6/8
L: 1/8
K: G
[|\
!f!G2G G2A | B2c d2B |\
!p!d2e f2g | a2g {f}fed |\
b2b a2g | g2f e2d |\
e2f g2e | d2c B2A |
!f!G3 g3 | G3 g3 |\
!p!b2a a2g | ~g2f e2d |\
{f}e2f g2e | d2c B2A |\
!f!G2g gaf | g3 g3 |]


